X:26
T:Dairy Maid, The
T:Bhanarach dhonn a' chruidh
R:Slow Air
S:Simon Fraser Collection
N:No.55
O:Scottish
M:3/8
L:1/8
Q:3/8=50
K:G Minor
G/>F/|g>Ac|~d>cd|fdc|A>GF|G>AB|d>^fg|d>cB|G2||
|:(3d/=e/^f/|gdg/a/|b>ag|fdc|A>GF|1 gdg/a/|b>ag|dg^f|g2:|2
G>Ac|d>^fg|d>cA G2||

